common/resources/fonts/svg/yahoo.svg

<?xml version="1.0" encoding="UTF-8" standalone="no"?>
<svg width="1024px" height="1024px" viewBox="0 0 1024 1024" version="1.1" xmlns="http://www.w3.org/2000/svg" xmlns:xlink="http://www.w3.org/1999/xlink">
    <!-- Generator: Sketch 39.1 (31720) - http://www.bohemiancoding.com/sketch -->
    <title>yahoo</title>
    <desc>Created with Sketch.</desc>
    <defs></defs>
    <g id="Page-1" stroke="none" stroke-width="1" fill="none" fill-rule="evenodd">
        <g id="yahoo" fill="#2C2C2C">
            <path d="M437.395519,279.03466 C438.671122,260.269079 440.03784,241.595038 442.68016,222.920996 L20,222.920996 L20,279.03466 C62.4593565,281.689303 103.734224,285.717037 146.284695,288.371681 C226.009882,385.861161 305.735068,483.350642 386.826972,582.121675 L386.826972,733.070176 C341.634181,737.09791 296.44139,739.752554 251.248598,743.780288 L251.248598,793.120035 L668.644117,793.120035 L668.644117,743.780288 C623.451326,741.034105 578.258535,739.752554 533.065743,738.379462 C534.432461,685.011981 535.708064,630.271409 537.074781,576.812389 C615.43325,507.33397 692.607231,437.947091 769.690097,368.468672 C809.507133,365.814029 849.415283,363.159386 890.599037,359.131651 L890.599037,293.680967 C772.332417,295.054058 655.341401,296.33561 537.074781,298.990253 L537.074781,353.822365 C580.900855,356.477008 624.818043,357.75856 668.644117,359.131651 C611.515327,408.562937 554.295421,456.621132 497.166631,506.052418 C438.671122,433.919356 380.175614,360.504742 321.680106,288.371681 C360.221539,284.343946 398.762972,281.689303 437.395519,279.03466 Z M973,424.000045 C931.579573,422.159591 890.684786,420.350331 849.789999,418.509876 C847.722482,505.447954 845.690008,592.82275 843.657533,679.760828 C863.071168,681.570089 883.010443,683.379349 902.424078,685.219803 C925.937704,597.845007 949.486374,510.906929 973,424.000045 Z M839.759498,785.625615 L902.336248,787.810844 L904.273806,732.326432 C881.680051,729.583015 859.085139,726.872683 836.459142,724.161266 C837.53773,744.968847 838.66358,765.314317 839.759498,785.625615 Z" id="Combined-Shape"></path>
        </g>
    </g>
</svg>

<svg width="1024" height="1024" viewBox="0 0 1024 1024">
    <path d="M437.396 279.035c1.275-18.766 2.642-37.44 5.284-56.114H20v56.114c42.46 2.654 83.734 6.682 126.285 9.337 79.725 97.49 159.45 194.979 240.542 293.75V733.07c-45.193 4.028-90.386 6.683-135.578 10.71v49.34h417.395v-49.34c-45.193-2.746-90.385-4.027-135.578-5.4 1.366-53.368 2.642-108.109 4.009-161.568 78.358-69.478 155.532-138.865 232.615-208.343 39.817-2.655 79.725-5.31 120.909-9.337V293.68c-118.267 1.373-235.258 2.655-353.524 5.31v54.831c43.826 2.655 87.743 3.937 131.57 5.31-57.13 49.43-114.35 97.49-171.478 146.92-58.496-72.133-116.991-145.547-175.487-217.68 38.542-4.028 77.083-6.683 115.716-9.337zM973 424c-41.42-1.84-82.315-3.65-123.21-5.49-2.068 86.938-4.1 174.313-6.132 261.25 19.413 1.81 39.352 3.62 58.766 5.46C925.938 597.845 949.486 510.907 973 424zM839.76 785.626l62.576 2.185 1.938-55.485a43654.072 43654.072 0 0 0-67.815-8.165c1.079 20.808 2.205 41.153 3.3 61.465z" fill="#2C2C2C" fill-rule="evenodd"/>
</svg>
